**kern
*clefG2
*k[f#c#g#]
*M4/4
=1-
8a
2g#
(16a
8r
16b
(8b- 8g# 8e#
=2
2cc-)
16b
(8a
4b)
16a
=3
16g#
16g# 16e
4a
16r
16r
4g#
8f#
16r
16f#
=4
4g#
8a
16b
2a
16r
=5
4b
8.a
4r
8b
16b
(8a
=6
2gn)
4a
16b
8b#
16cc#
=7
1cc#
=8
1r
=9
2b
4a
16b
(16a
16a 16f#)
16g#
=10
1g#
=11
*-